X: 10
T: Karis Pers Polska
I: Karis Pers Polska	M-7	D	polka
C: M-7 (Trad)
M: 3/4
Z: Transcribed to abc by Mary Lou Knack
R: polka
K: D
"D"A2 A>B A>G| G<F FD F>A| A<d d>e d>c| "G"cB B>G B2|
"A"e2 e>f e>d| dc c>A c>e| a2 a>g f>e|1 "D"d>e f>g a2 :|2 "D"cB/c/ d4 |]
\
 "G"g2 eg e>g| "D"fe d>c d>f| "A"fe    e>A B>c| "D"d>e f>g a2|
 "G"g2 eg e>g| "D"fe d>c d>f| "A"fe "D"e>A B>c|    c<d d2 |]

